T: Woodford Whistler, The
M: 4/4
L: 1/8
K: Dmaj
d2 fd BA3 | FDFA defg | adbd afdf | egfd edBc |
d2 fd BA3 | FDFA defg | adbd afdf | edBc d4 ||
adbd afdf | egfd edBd | adbd afde | feed e2fg |
a3b afdf | egfd edBc | dBAE FAdf | edBc d4||
